X: 3694
T: Billy On The High Ground
R: hornpipe
M: 4/4
K: Dmajor
|:fg|a2 a/a/a agfe|de f/e/d B2 ef|g2 g/g/g gfed|ceae cefg|
af a/a/a agfe|d2 f/e/d B2 ef|ge g/g/g gfed|ceae d2:|
|:AG|FAdA FAdA|GBdB G2 dB|ceae ceae|dfaf ge c/B/A|
F/G/A dA FA d2|G/A/B dB GBdB|ceae ceaA|d/e/d c2 d2:|

